assets/icons/wifi.svg

<svg width="512" height="512" viewBox="0 0 512 512" xmlns="http://www.w3.org/2000/svg">
<path fill-rule="evenodd" clip-rule="evenodd" d="M331.295 353.764C331.426 353.945 331.204 353.634 331.295 353.764C331.031 353.403 330.686 352.943 330.256 352.399C329.397 351.312 328.196 349.882 326.638 348.229C323.526 344.927 318.948 340.692 312.768 336.504C300.287 328.047 281.56 320 256 320C230.44 320 211.713 328.047 199.232 336.504C193.052 340.692 188.474 344.927 185.362 348.229C183.804 349.882 182.603 351.312 181.744 352.399C182.008 352.038 181.314 352.943 181.744 352.399L180.158 354.541C175.808 360.976 176.709 369.605 182.293 375.004L244.879 435.504C251.081 441.499 260.918 441.499 267.12 435.504L329.707 375.004C335.291 369.605 336.192 360.976 331.843 354.541L331.295 353.764Z" />
<path fill-rule="evenodd" clip-rule="evenodd" d="M421.086 269.862C420.951 269.644 420.49 268.896 420.274 268.562C419.84 267.896 419.24 267.005 418.464 265.923C416.912 263.76 414.651 260.827 411.603 257.387C405.504 250.507 396.241 241.585 383.186 232.75C356.915 214.969 315.967 198 256 198C196.033 198 155.085 214.969 128.814 232.75C115.759 241.585 106.496 250.507 100.397 257.387C97.3485 260.827 95.0878 263.76 93.5358 265.923C92.7595 267.005 92.1597 267.896 91.7263 268.562C91.5096 268.896 91.3343 269.174 91.1994 269.391C91.132 269.5 90.9141 269.862 90.9141 269.862C87.1429 276.245 88.2511 284.383 93.5918 289.526L128.902 323.526C132.036 326.543 136.263 328.154 140.61 327.988C144.936 327.823 149.009 325.913 151.901 322.695C151.903 322.692 151.905 322.689 151.909 322.686C151.936 322.656 152.001 322.586 152.104 322.477C152.311 322.258 152.669 321.886 153.178 321.381C154.197 320.37 155.812 318.834 158.009 316.945C162.411 313.16 169.102 307.998 177.964 302.804C195.658 292.436 221.893 282 256 282C290.107 282 316.342 292.436 334.036 302.804C342.898 307.998 349.589 313.16 353.991 316.945C356.188 318.834 357.803 320.37 358.822 321.381C359.331 321.886 359.689 322.258 359.896 322.477C359.999 322.586 360.064 322.656 360.091 322.686L360.086 322.68L360.073 322.665M360.073 322.665C360.082 322.675 360.091 322.685 360.099 322.694C362.991 325.913 367.064 327.823 371.39 327.988C375.737 328.154 379.964 326.543 383.098 323.526L418.408 289.526C423.749 284.383 424.857 276.245 421.086 269.862" />
<path d="M507.974 181.264C508.317 181.723 509.155 182.893 509.155 182.893C513.613 189.332 512.754 198.052 507.126 203.499L470.436 238.999C467.248 242.083 462.923 243.706 458.493 243.479C454.074 243.253 449.947 241.207 447.091 237.829L447.088 237.826C447.077 237.813 447.049 237.78 447.003 237.727C446.911 237.621 446.75 237.437 446.521 237.179C446.062 236.665 445.328 235.858 444.324 234.8C442.315 232.684 439.229 229.571 435.095 225.79C426.82 218.221 414.405 208.026 398.098 197.809C365.499 177.384 317.58 157 256 157C194.42 157 146.501 177.384 113.902 197.809C97.5948 208.026 85.1796 218.221 76.9047 225.79C72.7716 229.571 69.685 232.684 67.676 234.8C66.6719 235.858 65.9384 236.665 65.4791 237.179C65.2496 237.437 65.0888 237.621 64.9971 237.727L64.9503 237.781L64.9205 237.815L64.916 237.821L64.9117 237.826L64.9085 237.83C62.0528 241.208 57.9255 243.253 53.5069 243.479C49.0769 243.706 44.7517 242.083 41.5639 238.999L4.87425 203.499C-0.754421 198.052 -1.61321 189.332 2.84493 182.893L2.85549 182.877L2.86773 182.86L2.89728 182.817C2.91924 182.786 2.94571 182.748 2.9767 182.704C3.03868 182.616 3.11877 182.504 3.21704 182.367C3.41359 182.093 3.68298 181.723 4.02598 181.264C4.71191 180.344 5.69278 179.065 6.97482 177.478C9.53819 174.304 13.3104 169.893 18.3417 164.66C28.3994 154.2 43.5266 140.419 64.1248 126.687C105.437 99.1458 168.481 72 256 72C343.519 72 406.563 99.1458 447.875 126.687C468.473 140.419 483.601 154.2 493.658 164.66C498.69 169.893 502.462 174.304 505.025 177.478C506.307 179.065 507.288 180.344 507.974 181.264Z" />
</svg>

<svg xmlns="http://www.w3.org/2000/svg" width="512" height="512"><path fill-rule="evenodd" d="M331.295 353.764c.131.181-.091-.13 0 0a46 46 0 0 0-1.039-1.365 64 64 0 0 0-3.618-4.17c-3.112-3.302-7.69-7.537-13.87-11.725C300.287 328.047 281.56 320 256 320s-44.287 8.047-56.768 16.504c-6.18 4.188-10.758 8.423-13.87 11.725a64 64 0 0 0-3.618 4.17c.264-.361-.43.544 0 0l-1.586 2.142a16 16 0 0 0 2.135 20.463l62.586 60.5c6.202 5.995 16.039 5.995 22.241 0l62.587-60.5a16 16 0 0 0 2.136-20.463z" clip-rule="evenodd"/><path fill-rule="evenodd" d="M421.086 269.862c-.135-.218-.596-.966-.812-1.3a72 72 0 0 0-1.81-2.639c-1.552-2.163-3.813-5.096-6.861-8.536-6.099-6.88-15.362-15.802-28.417-24.637C356.915 214.969 315.967 198 256 198s-100.915 16.969-127.186 34.75c-13.055 8.835-22.318 17.757-28.417 24.637-3.049 3.44-5.31 6.373-6.861 8.536a71 71 0 0 0-1.81 2.639q-.324.502-.527.829l-.285.471a16 16 0 0 0 2.678 19.664l35.31 34a16 16 0 0 0 23.007-.84l.195-.209c.207-.219.565-.591 1.074-1.096a93 93 0 0 1 4.831-4.436c4.402-3.785 11.093-8.947 19.955-14.141C195.658 292.436 221.893 282 256 282s60.342 10.436 78.036 20.804c8.862 5.194 15.553 10.356 19.955 14.141a93 93 0 0 1 4.831 4.436 49 49 0 0 1 1.269 1.305l-.005-.006-.013-.015m0 0 .026.029a16 16 0 0 0 22.999.832l35.31-34a16 16 0 0 0 2.678-19.664" clip-rule="evenodd"/><path d="M507.974 181.264c.343.459 1.181 1.629 1.181 1.629a16 16 0 0 1-2.029 20.606l-36.69 35.5a16 16 0 0 1-23.345-1.17l-.003-.003-.085-.099q-.138-.16-.482-.548a108 108 0 0 0-2.197-2.379c-2.009-2.116-5.095-5.229-9.229-9.01-8.275-7.569-20.69-17.764-36.997-27.981C365.499 177.384 317.58 157 256 157s-109.499 20.384-142.098 40.809c-16.307 10.217-28.722 20.412-36.997 27.981-4.133 3.781-7.22 6.894-9.229 9.01a109 109 0 0 0-2.197 2.379q-.345.388-.482.548l-.047.054-.03.034-.004.006-.004.005-.004.004a16 16 0 0 1-23.344 1.169l-36.69-35.5a16 16 0 0 1-2.03-20.606l.011-.016.013-.017.03-.043.079-.113.24-.337q.295-.413.809-1.103c.686-.92 1.667-2.199 2.949-3.786 2.563-3.174 6.335-7.585 11.367-12.818 10.057-10.46 25.185-24.241 45.783-37.973C105.437 99.146 168.48 72 256 72s150.563 27.146 191.875 54.687c20.598 13.732 35.726 27.513 45.783 37.973 5.032 5.233 8.804 9.644 11.367 12.818a125 125 0 0 1 2.949 3.786"/></svg>
